src/Components/Assets/Img/FordLogo.svg

<svg fill="none" height="49" viewBox="0 0 178 49" width="178" xmlns="http://www.w3.org/2000/svg" xmlns:xlink="http://www.w3.org/1999/xlink"><mask id="a" height="33" maskUnits="userSpaceOnUse" width="37" x="4" y="4"><path d="m4 36.8964v-32.8964h36.1818v32.8964z" fill="#fff"/></mask><path clip-rule="evenodd" d="m37.2177 21.0722c-.068.0815-.0313.1593.0859.1513 1.7446-.0938 3.3136-.1393 4.9424-.2709.2841-.024.2948-.0957.2697-.3062-.0252-.2131-.0292-.432-.0227-.6524-.2567-1.3829-.6518-2.716-1.1786-3.9803-1.5896 1.488-2.9932 3.1192-4.0967 5.0585z" fill="#002f6d" fill-rule="evenodd"/><path clip-rule="evenodd" d="m35.6382 23.4427c-2.9681 4.951-6.1379 10.2895-9.6172 13.8633-3.3525 3.4426-6.1972 4.6033-9.1283 4.824 2.0394.7353 4.2341 1.1389 6.523 1.1389 10.7228 0 19.4157-8.7912 19.4157-19.6349 0-.3713-.0122-.7393-.0324-1.1054-.0517.0011-.1085.0036-.1779.0076-1.7626.1025-4.5106.3716-6.3727.6069-.4505.0567-.517.1418-.6102.2996z" fill="#002f6d" fill-rule="evenodd"/><g mask="url(#a)"><path clip-rule="evenodd" d="m9.53947 28.6251c1.23183-1.6229 3.31613-2.9716 5.08043-3.3015.5742-.1065 1.3458-.0381 1.6644.3459.5005.5887.3563 1.2352-.1435 1.4934-1.3458.6956-2.9659 1.8855-3.767 3.5098-.6504 1.3262-.7817 2.9251.2111 4.4473 1.6622 2.5378 6.2943 2.6073 10.6013-1.4396 1.0661-.9899 2.021-1.9415 2.9911-3.0688 1.897-2.1938 2.528-2.9934 5.0499-6.5309.0302-.0403.0385-.0945.0252-.1207-.0209-.0451-.0561-.0575-.1295-.0622-1.6834.0466-3.1511.5546-4.5774 1.6327-.4106.3026-1.0017.26-1.2606-.1385-.2876-.4505-.0816-1.0385.3926-1.3695 2.2943-1.6141 4.8015-1.9069 7.3611-2.344-.0018 0 .1784.0088.3247-.188 1.0506-1.364 1.8445-2.5945 2.9641-3.9738 1.1287-1.3996 2.5877-2.6847 3.7016-3.6498.0521-.0454.1021-.0873.1528-.1305-.7597-1.3124-1.6651-2.5269-2.6945-3.6222-3.7447-.54111-7.5117-.65456-11.168.7145-3.8914 1.4691-5.5967 4.5906-4.7762 6.676.5828 1.4789 2.5075 1.7197 4.3085.8284 1.4961-.7415 2.8796-1.9356 3.8612-3.4742.5497-.8538 1.7064-.2378 1.0819 1.2451-1.6446 3.9095-4.7864 7.0102-8.6131 7.1404-3.2564.1072-5.358-2.316-5.3512-5.3051.0123-5.8964 6.504-9.78003 13.3243-10.36039 1.4371-.12036 2.8598-.14764 4.2747-.11236-3.1299-2.18437-6.9232-3.46655-11.0138-3.46655-10.7229 0-19.41572 8.7905-19.41572 19.6338 0 4.3018 1.37168 8.2775 3.6915 11.5124 0-.0022-.00072-.0047-.00072-.0069-.23262-2.4811.46095-4.6928 1.84881-6.5142z" fill="#002f6d" fill-rule="evenodd"/></g><g clip-rule="evenodd" fill-rule="evenodd"><path d="m30.1547 7.57875c-6.8203.58037-13.312 4.46435-13.3242 10.36035-.0069 2.9895 2.0947 5.4124 5.3512 5.3055 3.8267-.1306 6.9688-3.2313 8.613-7.1404.6245-1.4829-.5321-2.0993-1.0819-1.2451-.9812 1.5382-2.3651 2.7324-3.8612 3.4742-1.801.8913-3.7257.6505-4.3085-.8287-.8205-2.0855.8849-5.2069 4.7763-6.6757 3.6562-1.36942 7.4233-1.2556 11.168-.7149-.9255-.9847-1.9491-1.87307-3.058-2.64725-1.4148-.03527-2.8376-.00836-4.2747.112z" fill="#fefefe"/><path d="m40.029 13.8668c-1.1139.9654-2.573 2.2501-3.7012 3.6501-1.12 1.3793-1.9139 2.6099-2.9645 3.9735-.1464.1971-.3265.188-.3243.188-2.56.4374-5.0672.7298-7.3615 2.344-.4742.3313-.6802.9189-.3926 1.3694.2589.399.85.4415 1.2609.139 1.426-1.0786 2.8937-1.5862 4.5771-1.6331.0734.0047.1086.0171.1295.0625.0133.0258.005.08-.0252.1204-2.5219 3.5378-3.1529 4.3371-5.0495 6.5309-.9705 1.1273-1.9251 2.0789-2.9915 3.0691-4.3071 4.0469-8.9391 3.9771-10.6013 1.4396-.9928-1.5225-.8615-3.1211-.2111-4.4476.8011-1.6244 2.4212-2.8142 3.7674-3.5095.4994-.2585.6439-.9047.1431-1.4934-.3186-.3844-1.0902-.4524-1.6644-.3459-1.7643.3295-3.8486 1.6782-5.08044 3.3011-1.38786 1.8219-2.08144 4.0331-1.84881 6.5146.00036.0018.00072.0043.00108.0065 2.27991 3.1793 5.47707 5.6404 9.20127 6.984 2.9307-.2203 5.7755-1.3814 9.1283-4.824 3.4793-3.5738 6.6488-8.912 9.6169-13.8632.0931-.1579.1596-.243.6101-.2997 1.8621-.2353 4.6105-.504 6.3727-.6069.0694-.0036.1262-.0062.1783-.0076-.0474-.8611-.1528-1.7066-.3063-2.5346-.0065.2204-.0025.4393.0226.6524.0252.2105.0144.2822-.2696.3062-1.6288.1316-3.1979.1771-4.9424.2705-.1172.0084-.1539-.0694-.0859-.1509 1.1034-1.9393 2.5071-3.5705 4.0967-5.0585-.3283-.7873-.7098-1.5462-1.1326-2.2771-.0507.0432-.1007.0847-.1528.1302z" fill="#fefefe"/><path d="m53.1024 17.156h9.1329v2.1095h-6.9577v3.6181h6.7779v2.0913h-6.7779v5.6549h-2.1752z" fill="#002f6d"/><path d="m71.1861 25.5749c0-2.1094-.7371-3.3276-2.9483-3.3276-2.2292 0-2.9483 1.2182-2.9483 3.3276 0 2.1091.7191 3.3455 2.9483 3.3455 2.2112 0 2.9483-1.2364 2.9483-3.3455zm-8.0004-.0545c0-3.4549 1.4203-5.3095 5.0521-5.3095 3.6314 0 5.052 1.8546 5.052 5.3095s-1.4206 5.3091-5.052 5.3091c-3.6318 0-5.0521-1.8542-5.0521-5.3091z" fill="#002f6d"/><path d="m74.8406 20.5747 1.6359-.1276.2158 1.164c.4134-.6909 1.6359-1.2367 3.3438-1.2727v2.1273c-2.409.0181-3.0918 1.1636-3.0918 2.9276v5.2364h-2.1037z" fill="#002f6d"/><path d="m88.5937 25.4841c0-2.3821-.7374-3.2549-3.0382-3.2549-2.1576 0-2.679 1.2728-2.679 3.2549 0 2.0182.5214 3.4 2.679 3.4 2.2293 0 3.0382-.9818 3.0382-3.4zm-7.8389 0c0-3.0185.9532-5.2549 4.4049-5.2549 2.0138 0 2.9663.3997 3.434 1.1091v-4.8185h2.1034v14.0189l-1.6003.164-.2334-1.0909c-.6112.8-1.6899 1.1996-3.7756 1.1996-3.3978 0-4.333-2.2727-4.333-5.3273z" fill="#002f6d"/><path d="m98.7381 24.1201c1.9779 0 3.0749-.7636 3.0749-2.8909 0-2.1094-1.061-2.7458-3.1289-2.7458h-4.4228v5.6367zm-5.8611-6.964h5.8431c3.0929 0 4.4939 1.2549 4.4939 4.0182 0 2.8007-1.383 4.2731-4.5123 4.2731h-4.4404v5.1822h-1.3843z" fill="#002f6d"/><path d="m111.198 26.102v-.7273h-.521c-4.315 0-5.376.4731-5.376 2.364 0 1.2.54 1.891 2.373 1.891 2.499 0 3.524-1.091 3.524-3.5277zm-7.209 1.7277c0-2.855 1.582-3.7095 6.616-3.7095h.593c-.036-1.7091-.396-2.4727-2.679-2.4727-1.258 0-2.337.4545-2.966.8723l-.719-1.0727c.647-.4545 2.139-1.0909 3.793-1.0909 3.344 0 3.883 1.1818 3.883 4.0553v3.7818c0 1.0727.073 1.2182 1.025 1.2182v1.2c-.089.0363-.269.0363-.539.0363-1.15 0-1.456-.3636-1.618-1.2545-.611.9454-1.672 1.4182-3.902 1.4182-2.786 0-3.487-1.2909-3.487-2.9818z" fill="#002f6d"/><path d="m114.696 29.6841.719-1.0727c1.169.7636 2.446 1.0003 3.488 1.0003 1.798 0 2.625-.3454 2.625-1.764 0-1.1273-.719-1.3454-2.625-1.7273-2.301-.4545-3.739-.8545-3.739-3.0185 0-1.7273 1.007-2.7455 3.739-2.7455 1.493 0 2.715.3273 3.632.8728l-.647 1.1276c-.755-.4185-1.762-.7276-2.967-.7276-1.869 0-2.409.5636-2.409 1.4727 0 1.1091.719 1.3818 2.463 1.7273 2.41.4912 3.865.8182 3.865 2.964 0 2.2912-1.258 3.0185-4.009 3.0185-1.312 0-2.786-.2367-4.135-1.1276z" fill="#002f6d"/><path d="m123.778 29.6841.719-1.0727c1.169.7636 2.445 1.0003 3.488 1.0003 1.798 0 2.625-.3454 2.625-1.764 0-1.1273-.719-1.3454-2.625-1.7273-2.301-.4545-3.74-.8545-3.74-3.0185 0-1.7273 1.008-2.7455 3.74-2.7455 1.492 0 2.715.3273 3.632.8728l-.648 1.1276c-.755-.4185-1.761-.7276-2.966-.7276-1.87 0-2.409.5636-2.409 1.4727 0 1.1091.719 1.3818 2.463 1.7273 2.409.4912 3.865.8182 3.865 2.964 0 2.2912-1.258 3.0185-4.009 3.0185-1.312 0-2.787-.2367-4.135-1.1276z" fill="#002f6d"/></g></svg>

<svg width="178" height="49" viewBox="0 0 178 49" fill="none" xmlns="http://www.w3.org/2000/svg">
<path fill-rule="evenodd" clip-rule="evenodd" d="M37.2177 21.0722C37.1497 21.1537 37.1864 21.2315 37.3036 21.2235C39.0482 21.1297 40.6172 21.0842 42.246 20.9526C42.5301 20.9286 42.5408 20.8569 42.5157 20.6464C42.4905 20.4333 42.4865 20.2144 42.493 19.994C42.2363 18.6111 41.8412 17.278 41.3144 16.0137C39.7248 17.5017 38.3212 19.1329 37.2177 21.0722Z" fill="#002F6D"/>
<path fill-rule="evenodd" clip-rule="evenodd" d="M35.6382 23.4427C32.6701 28.3937 29.5003 33.7322 26.021 37.306C22.6685 40.7486 19.8238 41.9093 16.8927 42.13C18.9321 42.8653 21.1268 43.2689 23.4157 43.2689C34.1385 43.2689 42.8314 34.4777 42.8314 23.634C42.8314 23.2627 42.8192 22.8947 42.799 22.5286C42.7473 22.5297 42.6905 22.5322 42.6211 22.5362C40.8585 22.6387 38.1105 22.9078 36.2484 23.1431C35.7979 23.1998 35.7314 23.2849 35.6382 23.4427Z" fill="#002F6D"/>
<mask id="mask0" mask-type="alpha" maskUnits="userSpaceOnUse" x="4" y="4" width="37" height="33">
<path d="M4 36.8964V4H40.1818V36.8964H4Z" fill="white"/>
</mask>
<g mask="url(#mask0)">
<path fill-rule="evenodd" clip-rule="evenodd" d="M9.53947 28.6251C10.7713 27.0022 12.8556 25.6535 14.6199 25.3236C15.1941 25.2171 15.9657 25.2855 16.2843 25.6695C16.7848 26.2582 16.6406 26.9047 16.1408 27.1629C14.795 27.8585 13.1749 29.0484 12.3738 30.6727C11.7234 31.9989 11.5921 33.5978 12.5849 35.12C14.2471 37.6578 18.8792 37.7273 23.1862 33.6804C24.2523 32.6905 25.2072 31.7389 26.1773 30.6116C28.0743 28.4178 28.7053 27.6182 31.2272 24.0807C31.2574 24.0404 31.2657 23.9862 31.2524 23.96C31.2315 23.9149 31.1963 23.9025 31.1229 23.8978C29.4395 23.9444 27.9718 24.4524 26.5455 25.5305C26.1349 25.8331 25.5438 25.7905 25.2849 25.392C24.9973 24.9415 25.2033 24.3535 25.6775 24.0225C27.9718 22.4084 30.479 22.1156 33.0386 21.6785C33.0368 21.6785 33.217 21.6873 33.3633 21.4905C34.4139 20.1265 35.2078 18.896 36.3274 17.5167C37.4561 16.1171 38.9151 14.832 40.029 13.8669C40.0811 13.8215 40.1311 13.7796 40.1818 13.7364C39.4221 12.424 38.5167 11.2095 37.4873 10.1142C33.7426 9.57309 29.9756 9.45964 26.3193 10.8287C22.4279 12.2978 20.7226 15.4193 21.5431 17.5047C22.1259 18.9836 24.0506 19.2244 25.8516 18.3331C27.3477 17.5916 28.7312 16.3975 29.7128 14.8589C30.2625 14.0051 31.4192 14.6211 30.7947 16.104C29.1501 20.0135 26.0083 23.1142 22.1816 23.2444C18.9252 23.3516 16.8236 20.9284 16.8304 17.9393C16.8427 12.0429 23.3344 8.15927 30.1547 7.57891C31.5918 7.45855 33.0145 7.43127 34.4294 7.46655C31.2995 5.28218 27.5062 4 23.4156 4C12.6927 4 3.99988 12.7905 3.99988 23.6338C3.99988 27.9356 5.37156 31.9113 7.69138 35.1462C7.69138 35.144 7.69066 35.1415 7.69066 35.1393C7.45804 32.6582 8.15161 30.4465 9.53947 28.6251Z" fill="#002F6D"/>
</g>
<path fill-rule="evenodd" clip-rule="evenodd" d="M30.1547 7.57875C23.3344 8.15912 16.8427 12.0431 16.8305 17.9391C16.8236 20.9286 18.9252 23.3515 22.1817 23.2446C26.0084 23.114 29.1505 20.0133 30.7947 16.1042C31.4192 14.6213 30.2626 14.0049 29.7128 14.8591C28.7316 16.3973 27.3477 17.5915 25.8516 18.3333C24.0506 19.2246 22.1259 18.9838 21.5431 17.5046C20.7226 15.4191 22.428 12.2977 26.3194 10.8289C29.9756 9.45948 33.7427 9.5733 37.4874 10.114C36.5619 9.1293 35.5383 8.24093 34.4294 7.46675C33.0146 7.43148 31.5918 7.45839 30.1547 7.57875Z" fill="#FEFEFE"/>
<path fill-rule="evenodd" clip-rule="evenodd" d="M40.029 13.8668C38.9151 14.8322 37.456 16.1169 36.3278 17.5169C35.2078 18.8962 34.4139 20.1268 33.3633 21.4904C33.2169 21.6875 33.0368 21.6784 33.039 21.6784C30.479 22.1158 27.9718 22.4082 25.6775 24.0224C25.2033 24.3537 24.9973 24.9413 25.2849 25.3918C25.5438 25.7908 26.1349 25.8333 26.5458 25.5308C27.9718 24.4522 29.4395 23.9446 31.1229 23.8977C31.1963 23.9024 31.2315 23.9148 31.2524 23.9602C31.2657 23.986 31.2574 24.0402 31.2272 24.0806C28.7053 27.6184 28.0743 28.4177 26.1777 30.6115C25.2072 31.7388 24.2526 32.6904 23.1862 33.6806C18.8791 37.7275 14.2471 37.6577 12.5849 35.1202C11.5921 33.5977 11.7234 31.9991 12.3738 30.6726C13.1749 29.0482 14.795 27.8584 16.1412 27.1631C16.6406 26.9046 16.7851 26.2584 16.2843 25.6697C15.9657 25.2853 15.1941 25.2173 14.6199 25.3238C12.8556 25.6533 10.7713 27.002 9.53946 28.6249C8.1516 30.4468 7.45802 32.658 7.69065 35.1395C7.69101 35.1413 7.69137 35.1438 7.69173 35.146C9.97164 38.3253 13.1688 40.7864 16.893 42.13C19.8237 41.9097 22.6685 40.7486 26.0213 37.306C29.5006 33.7322 32.6701 28.394 35.6382 23.4428C35.7313 23.2849 35.7978 23.1998 36.2483 23.1431C38.1104 22.9078 40.8588 22.6391 42.621 22.5362C42.6904 22.5326 42.7472 22.53 42.7993 22.5286C42.7519 21.6675 42.6465 20.822 42.493 19.994C42.4865 20.2144 42.4905 20.4333 42.5156 20.6464C42.5408 20.8569 42.53 20.9286 42.246 20.9526C40.6172 21.0842 39.0481 21.1297 37.3036 21.2231C37.1864 21.2315 37.1497 21.1537 37.2177 21.0722C38.3211 19.1329 39.7248 17.5017 41.3144 16.0137C40.9861 15.2264 40.6046 14.4675 40.1818 13.7366C40.1311 13.7798 40.0811 13.8213 40.029 13.8668Z" fill="#FEFEFE"/>
<path fill-rule="evenodd" clip-rule="evenodd" d="M53.1024 17.156H62.2353V19.2655H55.2776V22.8836H62.0555V24.9749H55.2776V30.6298H53.1024V17.156Z" fill="#002F6D"/>
<path fill-rule="evenodd" clip-rule="evenodd" d="M71.1861 25.5749C71.1861 23.4655 70.449 22.2473 68.2378 22.2473C66.0086 22.2473 65.2895 23.4655 65.2895 25.5749C65.2895 27.684 66.0086 28.9204 68.2378 28.9204C70.449 28.9204 71.1861 27.684 71.1861 25.5749ZM63.1857 25.5204C63.1857 22.0655 64.606 20.2109 68.2378 20.2109C71.8692 20.2109 73.2898 22.0655 73.2898 25.5204C73.2898 28.9753 71.8692 30.8295 68.2378 30.8295C64.606 30.8295 63.1857 28.9753 63.1857 25.5204Z" fill="#002F6D"/>
<path fill-rule="evenodd" clip-rule="evenodd" d="M74.8406 20.5747L76.4765 20.4471L76.6923 21.6111C77.1057 20.9202 78.3282 20.3744 80.0361 20.3384V22.4657C77.6271 22.4838 76.9443 23.6293 76.9443 25.3933V30.6297H74.8406V20.5747Z" fill="#002F6D"/>
<path fill-rule="evenodd" clip-rule="evenodd" d="M88.5937 25.4841C88.5937 23.102 87.8563 22.2292 85.5555 22.2292C83.3979 22.2292 82.8765 23.502 82.8765 25.4841C82.8765 27.5023 83.3979 28.8841 85.5555 28.8841C87.7848 28.8841 88.5937 27.9023 88.5937 25.4841ZM80.7548 25.4841C80.7548 22.4656 81.708 20.2292 85.1597 20.2292C87.1735 20.2292 88.126 20.6289 88.5937 21.3383V16.5198H90.6971V30.5387L89.0968 30.7027L88.8634 29.6118C88.2522 30.4118 87.1735 30.8114 85.0878 30.8114C81.69 30.8114 80.7548 28.5387 80.7548 25.4841Z" fill="#002F6D"/>
<path fill-rule="evenodd" clip-rule="evenodd" d="M98.7381 24.1201C100.716 24.1201 101.813 23.3565 101.813 21.2292C101.813 19.1198 100.752 18.4834 98.6841 18.4834H94.2613V24.1201H98.7381ZM92.877 17.1561H98.7201C101.813 17.1561 103.214 18.411 103.214 21.1743C103.214 23.975 101.831 25.4474 98.7017 25.4474H94.2613V30.6296H92.877V17.1561Z" fill="#002F6D"/>
<path fill-rule="evenodd" clip-rule="evenodd" d="M111.198 26.102V25.3747H110.677C106.362 25.3747 105.301 25.8478 105.301 27.7387C105.301 28.9387 105.841 29.6297 107.674 29.6297C110.173 29.6297 111.198 28.5387 111.198 26.102ZM103.989 27.8297C103.989 24.9747 105.571 24.1202 110.605 24.1202H111.198C111.162 22.4111 110.802 21.6475 108.519 21.6475C107.261 21.6475 106.182 22.102 105.553 22.5198L104.834 21.4471C105.481 20.9926 106.973 20.3562 108.627 20.3562C111.971 20.3562 112.51 21.538 112.51 24.4115V28.1933C112.51 29.266 112.583 29.4115 113.535 29.4115V30.6115C113.446 30.6478 113.266 30.6478 112.996 30.6478C111.846 30.6478 111.54 30.2842 111.378 29.3933C110.767 30.3387 109.706 30.8115 107.476 30.8115C104.69 30.8115 103.989 29.5206 103.989 27.8297Z" fill="#002F6D"/>
<path fill-rule="evenodd" clip-rule="evenodd" d="M114.696 29.6841L115.415 28.6114C116.584 29.375 117.861 29.6117 118.903 29.6117C120.701 29.6117 121.528 29.2663 121.528 27.8477C121.528 26.7204 120.809 26.5023 118.903 26.1204C116.602 25.6659 115.164 25.2659 115.164 23.1019C115.164 21.3746 116.171 20.3564 118.903 20.3564C120.396 20.3564 121.618 20.6837 122.535 21.2292L121.888 22.3568C121.133 21.9383 120.126 21.6292 118.921 21.6292C117.052 21.6292 116.512 22.1928 116.512 23.1019C116.512 24.211 117.231 24.4837 118.975 24.8292C121.385 25.3204 122.84 25.6474 122.84 27.7932C122.84 30.0844 121.582 30.8117 118.831 30.8117C117.519 30.8117 116.045 30.575 114.696 29.6841Z" fill="#002F6D"/>
<path fill-rule="evenodd" clip-rule="evenodd" d="M123.778 29.6841L124.497 28.6114C125.666 29.375 126.942 29.6117 127.985 29.6117C129.783 29.6117 130.61 29.2663 130.61 27.8477C130.61 26.7204 129.891 26.5023 127.985 26.1204C125.684 25.6659 124.245 25.2659 124.245 23.1019C124.245 21.3746 125.253 20.3564 127.985 20.3564C129.477 20.3564 130.7 20.6837 131.617 21.2292L130.969 22.3568C130.214 21.9383 129.208 21.6292 128.003 21.6292C126.133 21.6292 125.594 22.1928 125.594 23.1019C125.594 24.211 126.313 24.4837 128.057 24.8292C130.466 25.3204 131.922 25.6474 131.922 27.7932C131.922 30.0844 130.664 30.8117 127.913 30.8117C126.601 30.8117 125.126 30.575 123.778 29.6841Z" fill="#002F6D"/>
</svg>
